lib/svgs/team-building.svg

<svg xmlns="http://www.w3.org/2000/svg" viewBox="0 0 20 20">
    <path fill="#000" fill-rule="evenodd" d="M16.75 18h.625c.375 0 .625-.25.625-.625V11.75c0-.375-.25-.625-.625-.625h-.625V18m-12.5-.625v-6.25h-.625c-.375 0-.625.25-.625.625v5.625c0 .375.25.625.625.625h.625v-.625M14.875 3h-8.75c-.375 0-.625.25-.625.625v13.75c0 .375.25.625.625.625h3.75v-2.5h1.25V18h3.75c.375 0 .625-.25.625-.625V3.625c0-.375-.25-.625-.625-.625M9.25 13.625H7.375v-1.25H9.25v1.25m0-2.5H7.375v-1.25H9.25v1.25m0-2.5H7.375v-1.25H9.25v1.25m0-2.5H7.375v-1.25H9.25v1.25m4.375 7.5H11.75v-1.25h1.875v1.25m0-2.5H11.75v-1.25h1.875v1.25m0-2.5H11.75v-1.25h1.875v1.25m0-2.5H11.75v-1.25h1.875v1.25"/>
</svg>

<?xml version="1.0" encoding="UTF-8" standalone="no"?>
<svg width="20px" height="20px" viewBox="0 0 20 20" version="1.1" xmlns="http://www.w3.org/2000/svg" xmlns:xlink="http://www.w3.org/1999/xlink">
    <defs></defs>
    <g id="Icons" stroke="none" stroke-width="1" fill="none" fill-rule="evenodd">
        <g id="Web" transform="translate(-337.000000, -2392.000000)" fill="#000000">
            <g id="team/team-building" transform="translate(337.000000, 2392.000000)">
                <path d="M16.75,18 L17.375,18 C17.75,18 18,17.75 18,17.375 L18,11.75 C18,11.375 17.75,11.125 17.375,11.125 L16.75,11.125 L16.75,17.375 L16.75,18 L16.75,18 M4.25,17.375 L4.25,11.125 L3.625,11.125 C3.25,11.125 3,11.375 3,11.75 L3,17.375 C3,17.75 3.25,18 3.625,18 L4.25,18 L4.25,17.375 L4.25,17.375 M14.875,3 L6.125,3 C5.75,3 5.5,3.25 5.5,3.625 L5.5,17.375 C5.5,17.75 5.75,18 6.125,18 L9.875,18 L9.875,15.5 L11.125,15.5 L11.125,18 L14.875,18 C15.25,18 15.5,17.75 15.5,17.375 L15.5,3.625 C15.5,3.25 15.25,3 14.875,3 L14.875,3 M9.25,13.625 L7.375,13.625 L7.375,12.375 L9.25,12.375 L9.25,13.625 L9.25,13.625 M9.25,11.125 L7.375,11.125 L7.375,9.875 L9.25,9.875 L9.25,11.125 L9.25,11.125 M9.25,8.625 L7.375,8.625 L7.375,7.375 L9.25,7.375 L9.25,8.625 L9.25,8.625 M9.25,6.125 L7.375,6.125 L7.375,4.875 L9.25,4.875 L9.25,6.125 L9.25,6.125 M13.625,13.625 L11.75,13.625 L11.75,12.375 L13.625,12.375 L13.625,13.625 L13.625,13.625 M13.625,11.125 L11.75,11.125 L11.75,9.875 L13.625,9.875 L13.625,11.125 L13.625,11.125 M13.625,8.625 L11.75,8.625 L11.75,7.375 L13.625,7.375 L13.625,8.625 L13.625,8.625 M13.625,6.125 L11.75,6.125 L11.75,4.875 L13.625,4.875 L13.625,6.125 L13.625,6.125" id="Shape"></path>
            </g>
        </g>
    </g>
</svg>
